dist/svg/diamond.svg

<!-- Generated by IcoMoon.io -->
<svg version="1.1" xmlns="http://www.w3.org/2000/svg" width="37" height="32" viewBox="0 0 37 32">
<title>diamond</title>
<path d="M3.786 13.714l11.125 11.875-5.357-11.875h-5.768zM18.286 27.5l6.232-13.786h-12.464zM9.607 11.429l3.643-6.857h-4.679l-5.143 6.857h6.179zM21.661 25.589l11.125-11.875h-5.768zM12.196 11.429h12.179l-3.643-6.857h-4.893zM26.964 11.429h6.179l-5.143-6.857h-4.679zM29.482 2.75l6.857 9.143q0.25 0.321 0.232 0.741t-0.304 0.723l-17.143 18.286q-0.321 0.357-0.839 0.357t-0.839-0.357l-17.143-18.286q-0.286-0.304-0.304-0.723t0.232-0.741l6.857-9.143q0.321-0.464 0.911-0.464h20.571q0.589 0 0.911 0.464z"></path>
</svg>

<svg version="1.1" xmlns="http://www.w3.org/2000/svg" viewBox="0 0 37 32"><path d="M3.786 13.714l11.125 11.875-5.357-11.875H3.786zm14.5 13.786l6.232-13.786H12.054zM9.607 11.429l3.643-6.857H8.571l-5.143 6.857h6.179zm12.054 14.16l11.125-11.875h-5.768zm-9.465-14.16h12.179l-3.643-6.857h-4.893zm14.768 0h6.179L28 4.572h-4.679zm2.518-8.679l6.857 9.143q.25.321.232.741t-.304.723L19.124 31.643q-.321.357-.839.357t-.839-.357L.303 13.357q-.286-.304-.304-.723t.232-.741L7.088 2.75q.321-.464.911-.464H28.57q.589 0 .911.464z"/></svg>
